svg/other/rake_line.svg

<?xml version="1.0" encoding="UTF-8"?>
<svg width="24px" height="24px" viewBox="0 0 24 24" version="1.1" xmlns="http://www.w3.org/2000/svg" xmlns:xlink="http://www.w3.org/1999/xlink">
    <title>rake_line</title>
    <g id="Icon" stroke="none" stroke-width="1" fill="none" fill-rule="evenodd">
        <g id="Other" transform="translate(0.000000, -96.000000)" fill-rule="nonzero">
            <g id="rake_line" transform="translate(0.000000, 96.000000)">
                <path d="M24,0 L24,24 L0,24 L0,0 L24,0 Z M12.5935,23.2578 L12.5819,23.2595 L12.5109,23.295 L12.4919,23.2987 L12.4767,23.295 L12.4057,23.2595 C12.3958,23.2564 12.387,23.259 12.3821,23.2649 L12.378,23.2758 L12.3609,23.7031 L12.3659,23.7235 L12.3769,23.7357 L12.4805,23.8097 L12.4953,23.8136 L12.5071,23.8097 L12.6107,23.7357 L12.6233,23.7197 L12.6267,23.7031 L12.6096,23.2758 C12.6076,23.2657 12.601,23.2593 12.5935,23.2578 Z M12.8584,23.1453 L12.8445,23.1473 L12.6598,23.2397 L12.6499,23.2499 L12.6472,23.2611 L12.6651,23.6906 L12.6699,23.7034 L12.6784,23.7105 L12.8793,23.8032 C12.8914,23.8069 12.9022,23.803 12.9078,23.7952 L12.9118,23.7812 L12.8777,23.1665 C12.8753,23.1546 12.8674,23.147 12.8584,23.1453 Z M12.143,23.1473 C12.1332,23.1424 12.1222,23.1453 12.1156,23.1526 L12.1099,23.1665 L12.0758,23.7812 C12.0751,23.7927 12.0828,23.8019 12.0926,23.8046 L12.1083,23.8032 L12.3092,23.7105 L12.3186,23.7024 L12.3225,23.6906 L12.3404,23.2611 L12.3372,23.2485 L12.3278,23.2397 L12.143,23.1473 Z" id="MingCute"></path>
                <path d="M4.22176,11.2928 C3.83123,10.9023 3.19807,10.9023 2.80754,11.2928 C2.41702,11.6833 2.41702,12.3165 2.80754,12.707 L4.22176,14.1213 C5.39333,15.2928 7.29282,15.2928 8.4644,14.1213 L10.5858,11.9999 L18.3641,19.7783 C18.7546,20.1688 19.3878,20.1688 19.7783,19.7783 C20.1688,19.3877 20.1688,18.7546 19.7783,18.364 L12,10.5857 L12.7063,9.87931 C12.7065,9.87912 12.7061,9.87951 12.7063,9.87931 C12.7065,9.87912 12.7073,9.87833 12.7075,9.87814 L14.1213,8.4644 C15.2928,7.29282 15.2928,5.39333 14.1213,4.22176 L12.707,2.80754 C12.3165,2.41702 11.6833,2.41702 11.2928,2.80754 C10.9023,3.19807 10.9023,3.83123 11.2928,4.22176 L12.707,5.63597 C13.0976,6.02649 13.0976,6.65966 12.707,7.05018 L11.9998,7.75741 L9.87849,5.63609 C9.48797,5.24556 8.8548,5.24556 8.46428,5.63609 C8.07376,6.02661 8.07376,6.65977 8.46428,7.0503 L10.5856,9.17162 L9.17169,10.5855 L7.05037,8.46421 C6.65984,8.07369 6.02668,8.07369 5.63615,8.46421 C5.24563,8.85473 5.24563,9.4879 5.63615,9.87842 L7.75747,11.9997 L7.05018,12.707 C6.65966,13.0976 6.02649,13.0976 5.63597,12.707 L4.22176,11.2928 Z" id="路径" fill="#09244B"></path>
            </g>
        </g>
    </g>
</svg>

<svg xmlns="http://www.w3.org/2000/svg" width="24" height="24"><g fill="none" fill-rule="nonzero"><path d="M24 0v24H0V0h24ZM12.594 23.258l-.012.002-.071.035-.02.004-.014-.004-.071-.036c-.01-.003-.019 0-.024.006l-.004.01-.017.428.005.02.01.013.104.074.015.004.012-.004.104-.074.012-.016.004-.017-.017-.427c-.002-.01-.009-.017-.016-.018Zm.264-.113-.014.002-.184.093-.01.01-.003.011.018.43.005.012.008.008.201.092c.012.004.023 0 .029-.008l.004-.014-.034-.614c-.003-.012-.01-.02-.02-.022Zm-.715.002a.023.023 0 0 0-.027.006l-.006.014-.034.614c0 .012.007.02.017.024l.015-.002.201-.093.01-.008.003-.011.018-.43-.003-.012-.01-.01-.184-.092Z"/><path fill="#09244B" d="M4.222 11.293a1 1 0 0 0-1.414 1.414l1.414 1.414a3 3 0 0 0 4.242 0L10.586 12l7.778 7.778a1 1 0 0 0 1.414-1.414L12 10.586l.706-.707h.002l1.413-1.415a3 3 0 0 0 0-4.242l-1.414-1.414a1 1 0 1 0-1.414 1.414l1.414 1.414a1 1 0 0 1 0 1.414L12 7.757l-2.122-2.12A1 1 0 1 0 8.464 7.05l2.122 2.122-1.414 1.413-2.122-2.12a1 1 0 0 0-1.414 1.413L7.757 12l-.707.707a1 1 0 0 1-1.414 0l-1.414-1.414Z"/></g></svg>
